X: 20986
T: Julia Clifford's
R: polka
M: 2/4
K: Dmajor
|:e|ff/f/ ge|f>f ge|fd ed|g/f/e/d/ BA|
ff/f/ ge|ff/f/ g2|f/e/d ed/c/|df d:|
|:B|A>B AF|Af af|e>d ef/e/|dA Bd/B/|
AA/B/ AF|Af a2|e>f gb|ef/e/ d:|

